svg/about/relationship.svg

<svg width="47" height="57" viewBox="0 0 47 57" fill="none" xmlns="http://www.w3.org/2000/svg">
<path d="M23.5 0C10.5233 0 0 10.3282 0 23.0652C0 36.002 10.2812 44.845 23.5 56.4C36.7188 44.845 47 36.002 47 23.0652C47 10.3282 36.4767 0 23.5 0ZM23.5 42.3C13.1153 42.3 4.7 33.8823 4.7 23.5C4.7 13.1177 13.1153 4.7 23.5 4.7C33.8846 4.7 42.3 13.1177 42.3 23.5C42.3 33.8823 33.8846 42.3 23.5 42.3ZM35.25 19.7752L21.8362 32.9987L13.1271 24.4752L16.45 21.15L21.8339 26.3505L31.9271 16.45L35.25 19.7752Z" fill="#E95C6D"/>
</svg>

<svg width="47" height="57" viewBox="0 0 47 57" fill="none" xmlns="http://www.w3.org/2000/svg"><path d="M23.5 0C10.523 0 0 10.328 0 23.065 0 36.002 10.281 44.845 23.5 56.4 36.719 44.845 47 36.002 47 23.065 47 10.328 36.477 0 23.5 0zm0 42.3c-10.385 0-18.8-8.418-18.8-18.8 0-10.382 8.415-18.8 18.8-18.8 10.385 0 18.8 8.418 18.8 18.8 0 10.382-8.415 18.8-18.8 18.8zm11.75-22.525L21.836 33l-8.709-8.524 3.323-3.325 5.384 5.2 10.093-9.9 3.323 3.325z" fill="#E95C6D"/></svg>
